X: 305
T: Araby's Daughter
T: in\.gean arabi
R: air, jig
%S: s:3 b:12(4+4+4)
B: O'Neill's 1850 #305
Z: 1999 by John Chambers <jc@trillian.mit.edu>
N: Compacted by using labels and play order [JC]
P: Play A1A2 BA2
Q: "With spirit"
M: 6/8
L: 1/8
K: D
   d     "^A1"| f zd f>ed | e>de fdd | d>cB Adf | egf   e2 ||
| (d/e/) "^A2"| f>ed f>ed | e>de fdd | dcB  Adf | ede "^fine"d2 |]
|| A      "^B"| AAA  BAA  | AAA  dAA | AAA f>ed | c<HeG A2"^->A2"A |]
